img/file-icon.svg

<svg width="19" height="22" viewBox="0 0 19 22" fill="none" xmlns="http://www.w3.org/2000/svg">
<path fill-rule="evenodd" clip-rule="evenodd" d="M15.4305 3.93473C13.6244 2.12856 10.696 2.12856 8.88979 3.93473L2.54807 10.2765C2.15754 10.667 1.52438 10.667 1.13385 10.2765C0.743329 9.88593 0.743329 9.25276 1.13385 8.86224L7.47557 2.52052C10.0628 -0.0667034 14.2575 -0.0667034 16.8447 2.52052C19.432 5.10774 19.432 9.30246 16.8447 11.8897L8.31396 20.4205C6.45897 22.2755 3.45144 22.2755 1.59645 20.4205C-0.258543 18.5655 -0.258542 15.5579 1.59645 13.7029L1.60028 13.6991L1.60029 13.6991L8.0406 7.3282C8.04131 7.32749 8.04202 7.32678 8.04273 7.32608C9.1409 6.2301 10.9254 6.14718 12.0718 7.29351C13.1945 8.41627 13.1945 10.2366 12.0718 11.3594L7.56397 15.8672C7.17344 16.2577 6.54028 16.2577 6.14975 15.8672C5.75923 15.4767 5.75923 14.8435 6.14975 14.453L10.6576 9.94516C10.9993 9.60345 10.9993 9.04943 10.6576 8.70772C10.3402 8.39033 9.82129 8.37594 9.45481 8.74241L9.45098 8.74624L9.45097 8.74623L3.01066 15.1172C3.01006 15.1178 3.00946 15.1184 3.00885 15.119C1.93672 16.1931 1.93732 17.9329 3.01066 19.0062C4.0846 20.0802 5.82581 20.0802 6.89975 19.0062L15.4305 10.4755C17.2367 8.6693 17.2367 5.74091 15.4305 3.93473Z" fill="#FF5A30"/>
</svg>

<svg width="19" height="22" fill="none" xmlns="http://www.w3.org/2000/svg"><path fill-rule="evenodd" clip-rule="evenodd" d="M15.43 3.935a4.625 4.625 0 00-6.54 0l-6.342 6.341a1 1 0 01-1.414-1.414l6.342-6.341a6.625 6.625 0 119.369 9.369l-8.531 8.53a4.75 4.75 0 11-6.718-6.717l.004-.004 6.44-6.37.003-.003c1.098-1.096 2.882-1.179 4.029-.032a2.875 2.875 0 010 4.065l-4.508 4.508a1 1 0 01-1.414-1.414l4.508-4.508a.875.875 0 000-1.237c-.318-.318-.837-.332-1.203.034l-.004.004-6.44 6.371-.002.002a2.75 2.75 0 003.89 3.887l8.532-8.53a4.625 4.625 0 000-6.541z" fill="#FF5A30"/></svg>
